X: 122
T: Malheur me bat
N: Derived from Mar3040-Malheur_me_bat.krn
C: Johannes Martini
%%abc-version 2.0
%%abcx-abcm2ps-target-version 5.9.1 (29 Sep 2008)
%%abc-creator hum2abc beta
%%abcx-conversion-date 2019/02/17 07:19:43
%%abc-edited-by Jesse Rodin
%%abc-edited-by Chris Gage 06-26-2012
%%abcx-initial-encoding-date 2012/08/10/
%%humdrum-veritas 1572913030
%%humdrum-veritas-data 3383653358
%%linebreak <none>
%%barnumbers 0
L: 1/4
M: 2/1
Q: 1/2=120
V: 1 clef=treble
V: 2 clef=treble-8
V: 3 clef=treble-8
K: C
[V:1] z8 | 
[V:2] e8 | 
[V:3] E8 | 
[V:1] z8 | 
[V:2] d6cB | 
[V:3] B4B4 | 
[V:1] E8 | 
[V:2] A4A4 | 
[V:3] c4c4 | 
[V:1] B4B4 | 
[V:2] G2d3Be2- | 
[V:3] B4G4 | 
[V:1] c4c4 | 
[V:2] edcBc4 | 
[V:3] A4A4 | 
[V:1] B4G4 | 
[V:2] d4B4 | 
[V:3] G2G4FE | 
[V:1] A4A4 | 
[V:2] A2c4d2 | 
[V:3] F4F4 | 
[V:1] G3AB2E2- | 
[V:2] e3dB2c2- | 
[V:3] E3FG2A2- | 
[V:1] EFG2A2E2 | 
[V:2] cde2A2B2 | 
[V:3] AGE2F2G2 | 
[V:1] F2E4D2 | 
[V:2] c2B4A2 | 
[V:3] A2E2F4 | 
[V:1] E4z4 | 
[V:2] B4z2e2- | 
[V:3] E8 | 
[V:1] B4G4 | 
[V:2] edB2c4 | 
[V:3] z4e4 | 
[V:1] A4B4 | 
[V:2] A4G2E2- | 
[V:3] c4d2e2- | 
[V:1] c4B2G2- | 
[V:2] E2F2G4 | 
[V:3] e2A2B4 | 
[V:1] G2A2B4 | 
[V:2] C4z4 | 
[V:3] c4B2G2- | 
[V:1] E4z2B2- | 
[V:2] C4G3A | 
[V:3] G2A2B4 | 
[V:1] B2c2B2e2- | 
[V:2] B2E2z2E2 | 
[V:3] E2e4dc | 
[V:1] e2dcdcBA | 
[V:2] G3ABAGF | 
[V:3] dcBAG3A | 
[V:1] G3AB2c2- | 
[V:2] E3FG2A2- | 
[V:3] B2c2B2e2- | 
[V:1] cBB4A2 | 
[V:2] A2G2A4 | 
[V:3] edB2c4 | 
[V:1] B2c3Bd2- | 
[V:2] E4c2B2 | 
[V:3] B2e3df2 | 
[V:1] dcc4B2 | 
[V:2] c2A2G4 | 
[V:3] e2c2d4 | 
[V:1] c2A4GF | 
[V:2] E2F2D4 | 
[V:3] z2c4B2 | 
[V:1] E4F2E2- | 
[V:2] C2c4B2 | 
[V:3] c2A4G2 | 
[V:1] E2A4G2 | 
[V:2] c2A2E4 | 
[V:3] A2c2B4 | 
[V:1] A2c2B4 | 
[V:2] F2E2G4 | 
[V:3] A2e4d2 | 
[V:1] A2c4BA | 
[V:2] A2E2F4 | 
[V:3] c2e4d2 | 
[V:1] !fermata!G8 | 
[V:2] !fermata!E4E4 | 
[V:3] !fermata!e4e2dc | 
[V:1] z4G4 | 
[V:2] E8 | 
[V:3] B2c2B2G2- | 
[V:1] G4G4 | 
[V:2] E8 | 
[V:3] GAB2E2e2- | 
[V:1] G8 | 
[V:2] z4E4 | 
[V:3] e2dcB4 | 
[V:1] A4A4 | 
[V:2] F4F4 | 
[V:3] A2c4d2 | 
[V:1] G4G4 | 
[V:2] E3FG2C2- | 
[V:3] e3dB2c2- | 
[V:1] E4D2G2- | 
[V:2] CDEFG3A | 
[V:3] c2BAB4 | 
[V:1] G2FEFEDC | 
[V:2] B4c2B2- | 
[V:3] E4E4 | 
[V:1] B,2E4D2 | 
[V:2] B2AGA4 | 
[V:3] E4F4 | 
[V:1] E4F4 | 
[V:2] G2FED4 | 
[V:3] E4z2A2- | 
[V:1] E4z2A2- | 
[V:2] C4F4 | 
[V:3] A2G2A4 | 
[V:1] A2G2A4 | 
[V:2] E2G2F2A2- | 
[V:3] B4c4 | 
[V:1] B4c4 | 
[V:2] AGG4F2 | 
[V:3] B2G2A4 | 
[V:1] B2G2A4 | 
[V:2] G2E2D4 | 
[V:3] G2G4^F2 | 
[V:1] G2G4^F2 | 
[V:2] z4D4 | 
[V:3] G4z4 | 
[V:1] G8 | 
[V:2] E3FG2E2 | 
[V:3] G6c2- | 
[V:1] z4G4 | 
[V:2] F4E3F | 
[V:3] c2d2e4- | 
[V:1] G2A4GF | 
[V:2] G2D3EFG | 
[V:3] e2f4ed | 
[V:1] E6F2- | 
[V:2] A3GE2D2 | 
[V:3] c6d2- | 
[V:1] FEC2D4 | 
[V:2] F2A2G4 | 
[V:3] dcA2B4 | 
[V:1] E3FG2A2 | 
[V:2] C3DE2F2 | 
[V:3] c8 | 
[V:1] G2c4BA | 
[V:2] G2A3Bc2 | 
[V:3] z4c4 | 
[V:1] B2d2c2e2- | 
[V:2] G2B2A2c2- | 
[V:3] d4e4 | 
[V:1] edc3Bd2- | 
[V:2] cBA2c2B2- | 
[V:3] c3de2f2- | 
[V:1] dcBAB4 | 
[V:2] B2c2G4 | 
[V:3] fedcd4 | 
[V:1] c4z4 | 
[V:2] E2F2D4 | 
[V:3] c2c4B2 | 
[V:1] c4d2e2- | 
[V:2] C2F4G2 | 
[V:3] c4z4 | 
[V:1] e2dcB2c2- | 
[V:2] A4B2A2 | 
[V:3] c4d2e2- | 
[V:1] c2BAG2A2- | 
[V:2] c4d2e2- | 
[V:3] e2dcB2c2- | 
[V:1] A2GFE2F2- | 
[V:2] e2dcB2c2- | 
[V:3] c2BAG2A2- | 
[V:1] FEC2D4 | 
[V:2] cBAGA4 | 
[V:3] AGE2F4 | 
[V:1] E8 |]  
[V:2] B8 |]  
[V:3] E8 |]  



